X:1
T:A LINE OF RAGS
T:A LINE OF RAGS
T:MARCH or TWO STEP.
T:Composed by D. HAWORTH. Author of "Blanche Waltzes." 
T:Copyright 1903 by D. Haworth.
T:Copyright 1903 by D. Haworth.
T:Copyright 1903 by D. Haworth.
C:Composed by D. HAWORTH.
Z:Copyright 1903 by D. Haworth.
%%score { ( 1 2 ) | 3 }
L:1/8
Q:1/4=90
M:2/4
K:Bb
V:1 treble nm="Piano" snm="Pno."
V:2 treble 
V:3 bass 
V:1
!ff! f2 | g/bg/ fF | G/BG/ FF | [Acf]/FF/ [^G=Bdf][GBdf] | [Acef] z [Acef]F |: %5
"^2d time 8va"!p!!f! [Bdf]/F[Bdf]/ F"_-"[Bdf] | F/[Bdf]F/ [Bdf]/F/[Bdf] | F/dB/ G/eB/ | [Fd]3 d | %9
 c/[Af]c/ [Af]/c/[Af] | [Bd]/[Ff]d/ B/c/d/B/ | c/dc/ [Bd][B=e] | [Af] z !>![Ac_ef]F | %13
 [Bdf]/F[Bdf]/ F[Bdf] | F/[Bdf]F/ [Bdf]/F/[Bdf] | F/dB/ G/eB/ | [Fd]3 e/d/ | c/[Gg]c/ [Gg]e/c/ | %18
 F/[df]F/ [df]F | [df]/[ce]F/ [Fd][Ec] |1 [DB] z [db]F :|2 [DB] z [Bdb] ||[K:F] g/a/ |: %23
!ff! b/[=e=e']b/ [ee']/b/[ee'] | b/[ee']b/ [ee']2 | a/[fd']a/ [fd']/a/[fd'] | a/[fd']a/ [fd']2 | %27
 c'/bg/ e/gb/ | [gbe']/[gbe'][gbe']/ [gbe']2 | [fad']/[fac']a/ f/e/f/a/ | %30
 [fad']/[fad'][fad']/ [fad']g/a/ | b/[ee']b/ [ee']/b/[ee'] | b/[ee']b/ [ee']2 | %33
 a/[fd']a/ [fd']/a/[fd'] | a/[fd']a/ [fd']2 | [fbf']/[fbf'][fbf']/ [fbf'][f_af'] | [f=af'] z z2 | %37
 z [=B=b]/[cc']/ [dd'][ee'] |1 [faf'] z !>![faf']g/a/ :|2 [faf'] z [faf']F || %40
[K:Bb]!p! [Bdf]/F[Bdf]/ F[Bdf] | F/[Bdf]F/ [Bdf]/F/[Bdf] | F/dB/ G/eB/ | [Fd]3 d | %44
 c/[Af]c/ [Af]/c/[Af] | [Bd]/[Ff]d/ B/c/d/B/ | c/dc/ [Bd][B=e] | [Af] z !>![Acf]F | %48
 [Bdf]/F[Bdf]/ F[Bdf] | F/[Bdf]F/ [Bdf]/F/[Bdf] | F/dB/ G/eB/ | [Fd]3 e/d/ | c/[Gg]c/ [Gg]e/c/ | %53
 F/[df]F/ [df]F | [df]/[ce]F/ [Fd][Ec] | [DB] z [Bdb] z |: %56
[K:Eb]!p!!f!"_-""^8va" g/[ee']g/ [ee'][ee'] | g/[dd']g/ [dd'][dd'] | g/[cc']g/ [cc'][dd'] | [Gg]4 | %60
 g/[ee']g/ [ee'][ee'] | g/[dd']g/ [dd'][dd'] | g/[cc']g/ [cc'][dd'] | [Aa]4 | %64
 d/[Aa]d/ [Aa]/d/[Aa] | d/[Ag]d/ [Af]2 | B/[Gg]B/ [Gg]/B/[Gg] | B/[Gf]B/ [Ge]2 |1 %68
 [Bd]/[Ff][Bd]/ [Ff][Bd] | [=Ac]/[Af]c/ [Af][EFAc] | [DFB] z z2 | z4 :|2 c/[=Af]c/ [Af][Ac] | %73
 [_Ae]/[Ad][Ad]/ [Ac][Ad] | [Ge][Gg]/[Aa]/ [Bb][Gg] | [Ee] z [egbe']F || %76
[K:Bb] [Bdf]/F[Bdf]/ F[Bdf] | F/[Bdf]F/ [Bdf]/F/[Bdf] | F/dB/ G/eB/ | [Fd]3 d | %80
 c/[Af]c/ [Af]/c/[Af] | [Bd]/[Ff]d/ B/c/d/B/ | c/dc/ [Bd][B=e] | [Af] z !>![Acf]F | %84
 [Bdf]/F[Bdf]/ F[Bdf] | F/[Bdf]F/ [Bdf]/F/[Bdf] | F/dB/ G/eB/ | [Fd]3 e/d/ | c/[Gg]c/ [Gg]e/c/ | %89
 F/[df]F/ [df]F | [df]/[ce]F/ [Fd][Ec] | [DB] z [Bdb] |] %92
V:2
 F2 | G/BG/ F x | x4 | x4 | x4 |: x4 | x4 | F2 G2 | x4 | x4 | x4 | x4 | x4 | x4 | x4 | F2 G2 | x4 | %17
 x4 | x4 | x4 |1 x4 :|2 x3 ||[K:F] x |: x4 | x4 | x4 | x4 | x4 | x4 | x4 | x4 | x4 | x4 | x4 | x4 | %35
 x4 | x4 | x4 |1 x4 :|2 x4 ||[K:Bb] x4 | x4 | F2 G2 | x4 | x4 | x4 | x4 | x4 | x4 | x4 | F2 G2 | %51
 x4 | x4 | x4 | x4 | x4 |:[K:Eb] x4 | x4 | x4 | x4 | x4 | x4 | x4 | x4 | x4 | x4 | x4 | x4 |1 x4 | %69
 x4 | x4 | x4 :|2 x4 | x4 | x4 | x4 ||[K:Bb] x4 | x4 | F2 G2 | x4 | x4 | x4 | x4 | x4 | x4 | x4 | %86
 F2 G2 | x4 | x4 | x4 | x4 | x3 |] %92
V:3
 x2 | x3 F, | G,/B,G,/ F,F, | [F,A,C] z [F,=B,D][F,B,D] | [F,A,CE] z [F,,F,] z |: %5
 [B,,,B,,][F,B,D] [D,,D,][F,B,D] | [F,,F,][F,B,D] [D,,D,][F,B,D] | %7
 [B,,,B,,][F,B,D] [E,,E,][G,B,E] | [B,,,B,,][F,B,D] [B,,,B,,][F,B,D] | %9
 [F,,F,][A,CEF] [F,,F,][A,CEF] | [B,,,B,,][F,B,D] [G,,G,][G,B,D] | %11
 [C,,C,][G,B,C=E] [C,,C,][G,B,CE] | [F,,F,] z !>![A,CF] z | [B,,,B,,][F,B,D] [D,,D,][F,B,D] | %14
 [F,,F,][F,B,D] [D,,D,][F,B,D] | [B,,,B,,][F,B,D] [E,,E,][G,B,E] | %16
 [B,,,B,,][F,B,D] [B,,,B,,][F,B,D] | [E,,E,][G,CE] [E,,E,][G,CE] | [F,,F,][F,B,D] [F,,F,][F,B,D] | %19
 [F,,F,][F,A,CE] [F,,F,][F,A,C] |1 [B,,,B,,] z [F,B,D] z :|2 [B,,,B,,] z [F,B,D] ||[K:F] z |: %23
 [G,,G,][G,B,C=E] [C,,C,][G,B,CE] | [G,,G,][G,B,CE] [C,,C,][G,B,CE] | [F,,F,][A,CF] [F,,F,][A,CF] | %26
 [F,,F,][A,CF] [F,,F,][A,CF] | [G,,G,][G,B,CE] [C,,C,][G,B,CE] | [G,,G,][G,B,CE] [C,,C,][G,B,CE] | %29
 [F,,F,][A,CF] [C,,C,][A,CF] | [F,,F,][A,CF] [F,,F,][A,CF] | [G,,G,][G,B,CE] [C,,C,][G,B,CE] | %32
 [G,,G,][G,B,CE] [C,,C,][G,B,CE] | [F,,F,][A,CF] [F,,F,][A,CF] | [F,,F,][A,CF] [C,,C,][A,CF] | %35
 !>![D,D]/!>![D,D]!>![D,D]/ !>![D,D]!>![_D,_D] | !>![C,C]>!>![^C,^C] !>![D,D]!>![_D,_D] | %37
 !>![C,C] z z [G,B,CE] |1 [F,A,CF] z !>![F,,F,] z :|2 [A,CF] z [F,A,CF] z || %40
[K:Bb] [B,,,B,,][F,B,D] [D,,D,][F,B,D] | [F,,F,][F,B,D] [D,,D,][F,B,D] | %42
 [B,,,B,,][F,B,D] [E,,E,][G,B,E] | [B,,,B,,][F,B,D] [B,,,B,,][F,B,D] | %44
 [F,,F,][A,CEF] [F,,F,][A,CEF] | [B,,,B,,][F,B,D] [G,,G,][G,B,D] | %46
 [C,,C,][G,B,C=E] [C,,C,][G,B,CE] | [F,,F,] z [A,CF] z | [B,,,B,,][F,B,D] [D,,D,][F,B,D] | %49
 [F,,F,][F,B,D] [D,,D,][F,B,D] | [B,,,B,,][F,B,D] [E,,E,][G,B,E] | %51
 [B,,,B,,][F,B,D] [B,,,B,,][F,B,D] | [E,,E,][G,CE] [E,,E,][G,CE] | [F,,F,][F,B,D] [F,,F,][F,B,D] | %54
 [F,,F,][F,A,CE] [F,,F,][F,A,C] | [B,,,B,,] z [F,B,D] z |:[K:Eb] [E,,E,][B,EG] [B,,,B,,][B,EG] | %57
 [E,,E,][B,EG] [B,,,B,,][B,EG] | [E,,E,][B,EG] [B,,,B,,][B,EG] | [E,,E,][B,EG] [B,,,B,,][B,EG] | %60
 [E,,E,][B,EG] [B,,,B,,][B,EG] | [E,,E,][B,EG] [B,,,B,,][B,EG] | [E,,E,][B,EG] [B,,,B,,][B,EG] | %63
 [F,,F,][F,A,B,D] [B,,,B,,][F,A,B,D] | [F,,F,][F,A,B,D] [B,,,B,,][F,A,B,D] | %65
 [F,,F,][F,A,B,D] [B,,,B,,][F,A,B,D] | [E,,E,][B,EG] [B,,,B,,][B,EG] | %67
 [E,,E,][B,EG] [B,,,B,,][B,EG] |1 [F,,F,][F,B,D] [F,,F,][F,B,D] | [F,,F,][=A,CEF] [F,,F,][F,A,C] | %70
 !>![B,,B,]>!>![=B,,=B,] !>![C,C]!>![B,,B,] | !>![_B,,_B,]!>![G,,G,] !>![A,,A,]!>![F,,F,] :|2 %72
 [F,,F,][=A,CEF] [F,,F,][A,CEF] | [B,,,B,,][F,_A,B,D] [B,,,B,,][F,A,B,D] | %74
 [E,,E,][G,,G,]/[A,,A,]/ [B,,B,][G,,G,] | [E,,E,] z [B,EG] z || %76
[K:Bb] [B,,,B,,][F,B,D] [D,,D,][F,B,D] | [F,,F,][F,B,D] [D,,D,][F,B,D] | %78
 [B,,,B,,][F,B,D] [E,,E,][G,B,E] | [B,,,B,,][F,B,D] [B,,,B,,][F,B,D] | %80
 [F,,F,][A,CEF] [F,,F,][A,CEF] | [B,,,B,,][F,B,D] [G,,G,][G,B,D] | %82
 [C,,C,][G,B,C=E] [C,,C,][G,B,CE] | [F,,F,] z !>![F,A,CF] z | [B,,,B,,][F,B,D] [D,,D,][F,B,D] | %85
 [F,,F,][F,B,D] [D,,D,][F,B,D] | [B,,,B,,][F,B,D] [E,,E,][G,B,E] | %87
 [B,,,B,,][F,B,D] [B,,,B,,][F,B,D] | [E,,E,][G,CE] [E,,E,][G,CE] | [F,,F,][F,B,D] [F,,F,][F,B,D] | %90
 [F,,F,][F,A,CE] [F,,F,][F,A,C] | [B,,,B,,]"^Fine." z [F,B,D] |] %92

